X:194
T:Marionets
M:6/8
L:1/8
B:Thompson's Compleat Collection of 200 Favourite Country Dances, vol. 3 (London, 1773)
Z:Transcribed and edited by Flynn Titford-Mock, 2007
Z:abc's:AK/Fiddler's Companion
K:G
G2B dBd | ece d3 | cAc BGB | AFA G2D | G2B dBd | ece d3 | cAc BGB | AFA G3 :|
|: B3 B3 | BAB c3 | B2c d2c | B2A G2D | B3 B3 | BAB c3 | B2c d2c | BcA G3 :|

